X:285
T:Paddy's Trip to Scotland
Z: id:dc-reel-265
M:C
L:1/8
K:D Major
A|d2AA BAGF|GABd cABc|d2ed cABc|dfed cABc|!
d2AA BAGF|GABd cABc|d2ed cABc|dfec d3:|!
B|Adfd Adfd|Adfd dcBc|Acec Acec|Acec dcBc|!
Adfd Adfd|Adfd dcBc|aAA2 dcBA|Bdce d3:|!

